assets/img/open.svg

<svg width="46" height="46" viewBox="0 0 46 46" fill="none" xmlns="http://www.w3.org/2000/svg">
<circle cx="23" cy="23" r="22.5" fill="white" stroke="white"/>
<path d="M22.8305 14H23.5085V34H22.8305V14Z" fill="#6C0287"/>
<path d="M13 24.1695V23.4915H33V24.1695H13Z" fill="#6C0287"/>
</svg>

<?xml version="1.0" encoding="UTF-8"?><svg fill="none" viewBox="0 0 46 46" xmlns="http://www.w3.org/2000/svg"><path d="m22.831 14h0.678v20h-0.678v-20z" fill="#fff"/><path d="m13 24.17v-0.678h20v0.678h-20z" fill="#fff"/><circle cx="23" cy="23" r="22" stroke="#fff" stroke-width="2"/></svg>
